X:384
M:6/8
L:1/8
K:D
E|:D2A F2A|E2=c GE=C|D2A F2A|D2A AFD|GBG FAF|E2F GE=C|dcB AFd|
|:d2g f/g/af|e2f ge=c|d2g f/g/af|d2a afd|gbg faf|e2f ge=c|1 d^cB AFd|D2A AFD:|2
agf gfe|(d3 d2)||

